X:30
T:Jubilee, The
M:2/4
L:1/8
B:Thompson's Compleat Collection of 200 Favourite Country Dances, vol. 3 (London, 1773)
Z:Transcribed and edited by Flynn Titford-Mock, 2007
Z:abc's:AK/Fiddler's Companion
K:D
f d2 c/d/ | e A2 B/c/ | dBAG | FEFD | f d2 c/d/ | eAfd | cB/A/ BA/^G/ | (A2 A2) :|
|: A/B/c/d/ ce | A d2 f | A e2 g | fe/d/ cB/A/ | f d2 c/B/ | eABG | FdEc | d2 D2 :|

